assets/images/eye.svg

<svg width="17" height="16" viewBox="0 0 17 16" fill="none" xmlns="http://www.w3.org/2000/svg">
<path d="M16.0112 6.23248C14.9776 4.50253 12.6265 1.6001 8.5 1.6001C4.37353 1.6001 2.0224 4.50253 0.988783 6.23248C0.669253 6.76359 0.5 7.37567 0.5 8.0001C0.5 8.62452 0.669253 9.23661 0.988783 9.76772C2.0224 11.4977 4.37353 14.4001 8.5 14.4001C12.6265 14.4001 14.9776 11.4977 16.0112 9.76772C16.3307 9.23661 16.5 8.62452 16.5 8.0001C16.5 7.37567 16.3307 6.76359 16.0112 6.23248ZM14.875 9.05067C13.9873 10.5341 11.978 13.0304 8.5 13.0304C5.02196 13.0304 3.0127 10.5341 2.12503 9.05067C1.93519 8.73498 1.83464 8.37121 1.83464 8.0001C1.83464 7.62899 1.93519 7.26521 2.12503 6.94953C3.0127 5.46612 5.02196 2.96981 8.5 2.96981C11.978 2.96981 13.9873 5.46338 14.875 6.94953C15.0648 7.26521 15.1654 7.62899 15.1654 8.0001C15.1654 8.37121 15.0648 8.73498 14.875 9.05067Z" fill="#0D6EFD"/>
<path d="M8.49935 4.7627C7.84008 4.7627 7.19561 4.95256 6.64745 5.30829C6.09929 5.66402 5.67204 6.16963 5.41975 6.76119C5.16746 7.35274 5.10145 8.00367 5.23007 8.63166C5.35868 9.25965 5.67615 9.8365 6.14233 10.2893C6.6085 10.742 7.20245 11.0503 7.84905 11.1753C8.49565 11.3002 9.16587 11.2361 9.77496 10.991C10.384 10.746 10.9046 10.3311 11.2709 9.79867C11.6372 9.26629 11.8327 8.64037 11.8327 8.00008C11.8316 7.14179 11.4801 6.31894 10.8552 5.71204C10.2303 5.10513 9.38308 4.76372 8.49935 4.7627ZM8.49935 9.94251C8.10379 9.94251 7.71711 9.82859 7.38821 9.61515C7.05931 9.40171 6.80297 9.09835 6.65159 8.74341C6.50022 8.38848 6.46061 7.99792 6.53778 7.62113C6.61495 7.24433 6.80543 6.89823 7.08514 6.62657C7.36484 6.35492 7.72121 6.16992 8.10917 6.09497C8.49713 6.02002 8.89927 6.05849 9.26472 6.20551C9.63017 6.35252 9.94253 6.60149 10.1623 6.92092C10.3821 7.24035 10.4994 7.6159 10.4994 8.00008C10.4994 8.51524 10.2886 9.00931 9.91356 9.37358C9.53849 9.73786 9.02978 9.94251 8.49935 9.94251Z" fill="#0D6EFD"/>
</svg>

<svg xmlns="http://www.w3.org/2000/svg" width="17" height="16" fill="none"><path fill="#0D6EFD" d="M16.011 6.232C14.978 4.502 12.627 1.6 8.5 1.6 4.374 1.6 2.022 4.503.989 6.232A3.43 3.43 0 0 0 .5 8c0 .625.17 1.237.489 1.768C2.022 11.498 4.374 14.4 8.5 14.4c4.127 0 6.478-2.902 7.511-4.632.32-.531.489-1.143.489-1.768 0-.624-.17-1.236-.489-1.768Zm-1.136 2.819c-.888 1.483-2.897 3.98-6.375 3.98s-5.487-2.497-6.375-3.98a2.04 2.04 0 0 1 0-2.101C3.013 5.466 5.022 2.97 8.5 2.97s5.487 2.493 6.375 3.98a2.04 2.04 0 0 1 0 2.1Z"/><path fill="#0D6EFD" d="M8.5 4.763c-.66 0-1.304.19-1.853.545A3.26 3.26 0 0 0 5.42 6.761a3.15 3.15 0 0 0-.19 1.87 3.21 3.21 0 0 0 .912 1.658c.466.453 1.06.761 1.707.886s1.317.061 1.926-.184a3.314 3.314 0 0 0 1.496-1.192A3.171 3.171 0 0 0 11.833 8a3.195 3.195 0 0 0-.978-2.288 3.388 3.388 0 0 0-2.356-.95Zm0 5.18c-.396 0-.783-.114-1.112-.328a1.956 1.956 0 0 1-.736-.872 1.89 1.89 0 0 1-.114-1.122c.077-.377.267-.723.547-.994.28-.272.636-.457 1.024-.532.388-.075.79-.037 1.156.11.365.148.678.396.897.716a1.903 1.903 0 0 1-.248 2.453 2.03 2.03 0 0 1-1.415.569Z"/></svg>
